icons/night/toml.svg

<svg xmlns="http://www.w3.org/2000/svg" fill="none" viewBox="0 0 16 16"><path
    fill="#e0af68"
    d="M13 3h-3V2h4v12h-4v-1h3V3ZM2 2h4v1H3v10h3v1H2V2Z"
  /><path fill="#e0af68" d="M5 5v2h2v5h2V7h2V5H5Z" /></svg>

<svg width="16" height="16" viewBox="0 0 16 16" fill="none" xmlns="http://www.w3.org/2000/svg">
<path d="M13 3H10V2H14V14H10V13H13V3ZM2 2H6V3H3V13H6V14H2V2Z" fill="#E0AF68"/>
<path d="M5 5V7H7V12H9V7H11V5H5Z" fill="#E0AF68"/>
</svg>
